X: 34599
T: River Of Ponds
R: jig
M: 6/8
K: Dmajor
d2c B2A|Bcd A3|ABA A2G|F2G A3|
d2c B2A|Bcd A3|ABd f2e|d3 d3:|
|:fef fef|agf e3|ABd e2f|e2d cBA|
fef fef|agf e3|ABd f2e|d3 d3:|

